X: 19556
T: James Gannon's
R: barndance
M: 4/4
K: Gmajor
B2^AB e2dB|d2cA E2FG A^GAB cAFA|GABG D2B,2|
B2^AB e2dB|d2cA E2FG|A^GAB cAFA|1 G2GF G4:|2 G2g2 g3f||
|:e^def gfga|b2d2 d3B|cBAB cdef|g2B2 gagf|
e^def gfga|b2d2 d3B|cBAB cAFA|1 G2g2 g3f:|2 G2GF G4||

